X:1
T:Tota pulchra es
T:Tota pulchra es
T:Anon. Publisert 1541
T:©
T:©
C:Anonymous
Z:©
%%score [ 1 2 3 ]
L:1/8
Q:1/4=120
M:3/2
K:C
V:1 treble nm="Sopran"
V:2 treble-8 nm="Tenor"
V:3 bass nm="Bass"
V:1
 B4 B4 c4 | B6 c2 d4 | c2 B3 A A4 G2 | A4 z4 z4 | G4 G4 A4 | B3 c d2 c4 B2 | c4 z4 A4 | %7
w: To- ta pul-|chra _ _|_ _ _ _ _|es,|a- mi- ca|me- * * * *|a, et|
 G3 A B2 c3 B/A/GF | E4 z4 G4- | G2 A2 B4 c2 d2- | dcBA G2 c4 B2 | c4 z4 z4 | G4 A2 A2 B4 | %13
w: ma- cu- la _ _ _ _ _|_ non|_ est in _ _|_ _ _ _ _ _ _|te.|Fa- vus di- stil-|
 G4 z2 A2 B2 B2 | c4 A4 z2 B2 | c4 d4 B4 | B2 c3 B A2 G3 A | B2 A4 G4 F2 | G8 z4 | c2 c2 B2 G2 A4 | %20
w: lans la- bi- a|tu- a, mel|et lac sub|lin- gua _ _ tu- *||a,|o- dor un- guen- to-|
 G4 z4 G4 | E2 F3 E E4 D2 | E2 E2 G4 G2 FE | D4 z4 A3 G | AG A4 GF E4 | z4 z4 A4 | G3 A B2 c3 BAG | %27
w: rum tu-|o- * * * *|rum su- per o- mni- *|a, su- per|o- * mni- * * a|a-||
 A4 G2 c4 B2 | c12 |] %29
w: * ro- ma- *|ta.|
V:2
 z12 | e4 e4 f4 | e6 dc B4 | A2 d3 c c4 B2 | c4 z2 e2 f4 | d2 g3 f e2 d4 | c2 f4 e4 d2 | e4 e4 d4 | %8
w: |To- ta pul-|chra _ _ _|_ _ _ _ _|es, a- mi-|ca me- * * *|a, et ma- cu-|la non est|
 c4 d4 z2 e2- | edef g3 f ed/c/ B2- | Bc d2 e4 d4 | c2 e3 d c4 B2 | c4 z2 c2 d2 d2 | e4 c4 z2 d2 | %14
w: in te, non|_ _ _ _ _ _ _ _ _ _||* est _ _ in|te, fa- vus di-|stil- lans la-|
 e2 e2 f4 d4 | z2 e2 f4 g3 f | ed c4 d2 e4 | d4 c2 B2 A4 | G2 c2 B2 e4 d2 | e4 z4 c2 c2 | %20
w: bi- a tu- a,|mel et lac _|_ _ _ sub lin-|gua _ _ tu-|a, tu- * * *|a, o- dor|
 B2 G2 A4 G2 B2 | c4 B2 B4 A2 | B4 z2 e2 e2 dc | B4 z2 d2 d2 d2- | d2 cB A4 c3 d | e2 f4 e4 d2 | %26
w: un- guen- to- rum tu-|o- * * *|rum su- per _ _|_ o- mni- a|_ _ _ _ a- *||
 e3 f g2 a4 g2- | g2 f2 g2 e2 d4 | c12 |] %29
w: |* * * ro- ma-|ta.|
V:3
 z12 | z12 | E,8 E,4 | F,6 E,2 D,4 | C,8 z4 | G,4 G,4 G,4 | A,6 G,2 F,4 | E,8 z4 | %8
w: ||To- ta|pul- chra _|es,|a- mi- ca|me- * *|a,|
 A,4 G,3 A, B,2 B,2- | CB,/A,/G,F, E,4 z2 G,2 | G,3 F, E,D, C,2 G,4 | C,3 D, E,2 F,2 D,4 | %12
w: et ma- cu- * *|* * * * * la non|est _ _ _ _ _|_ _ _ _ in|
 C,4 z4 G,4 | C,3 D, E,2 F,2 D,4 | C,4 D,3 E, F,2 G,2 | E,4 D,4 E,3 F, | G,2 A,2 F,4 E,3 F, | %17
w: te, fa-|vus _ _ di- stil-|lans la- bi- a tu-|a, mel _ _|et lac sub lin- *|
 G,2 F,4 G,2 D,4 | E,8 F,3 E,/D,/ | C,4 z8 | z4 C2 C2 B,2 G,2 | A,4 G,2 E,2 F,4 | E,8 z4 | %23
w: |gua tu- * *|a,|o- dor un- guen-|to- rum tu- o-|rum|
 G,4 G,2 F,E, D,4- | D,4 z4 A,4 | A,2 A,3 G,F,E, F,2 F,2 | E,4 z2 F,4 E,2 | D,4 E,2 C,2 G,4 | %28
w: tu- o- * * rum|_ su-|per o- * * * * mni-|a a- *|* * ro- ma-|
 C,12 |] %29
w: ta.|

